app/assets/images/payment_icons/amazon.svg

<svg xmlns="http://www.w3.org/2000/svg" width="38" height="24" viewBox="0 0 38 24" fill="none" aria-labelledby="pi-amazon" role="img"><title id="pi-amazon">Amazon</title><rect width="38" height="24" fill="white"/><path d="M25.26 16.23C23.563 17.71 21.103 18.5 18.985 18.5C16.015 18.5 13.341 17.2 11.319 15.037C11.159 14.867 11.301 14.635 11.492 14.767C13.675 16.271 16.374 17.175 19.162 17.175C21.042 17.175 23.112 16.715 25.012 15.759C25.3 15.614 25.542 15.981 25.26 16.229V16.23ZM25.966 15.273C25.75 14.945 24.532 15.118 23.986 15.195C23.819 15.219 23.793 15.047 23.943 14.925C24.913 14.115 26.505 14.349 26.691 14.62C26.878 14.892 26.644 16.78 25.731 17.683C25.591 17.821 25.459 17.747 25.521 17.563C25.726 16.959 26.185 15.603 25.967 15.273H25.966Z" fill="#FF9900"/><path d="M21.814 15.291C21.24 14.793 21.138 14.561 20.821 14.086C19.874 15.098 19.203 15.401 17.971 15.401C16.518 15.401 15.384 14.463 15.384 12.583C15.384 11.116 16.146 10.116 17.228 9.62802C18.168 9.19502 19.478 9.11802 20.478 9.00002V8.76502C20.478 8.33502 20.511 7.82502 20.27 7.45502C20.058 7.12202 19.654 6.98502 19.3 6.98502C18.64 6.98502 18.05 7.33802 17.908 8.07002C17.878 8.23302 17.764 8.39302 17.608 8.40002L15.931 8.21302C15.791 8.18002 15.635 8.06002 15.674 7.83302C16.06 5.70802 17.897 5.06702 19.541 5.06702C20.381 5.06702 21.481 5.30102 22.145 5.96702C22.987 6.78702 22.907 7.88502 22.907 9.07702V11.895C22.907 12.742 23.242 13.115 23.557 13.571C23.67 13.735 23.695 13.931 23.554 14.053C23.201 14.361 22.574 14.933 22.228 15.253C22.1709 15.3005 22.1008 15.3295 22.0269 15.3363C21.953 15.3431 21.8788 15.3273 21.814 15.291V15.291ZM20.155 12.758C20.495 12.132 20.478 11.544 20.478 10.84V10.448C19.228 10.448 17.908 10.728 17.908 12.268C17.908 13.05 18.294 13.578 18.958 13.578C19.445 13.578 19.88 13.266 20.155 12.758V12.758Z" fill="#221F1F"/></svg>

<svg xmlns="http://www.w3.org/2000/svg" role="img" viewBox="0 0 38 24" width="38" height="24" aria-labelledby="pi-amazon"><title id="pi-amazon">Amazon</title><path d="M35 0H3C1.3 0 0 1.3 0 3v18c0 1.7 1.4 3 3 3h32c1.7 0 3-1.3 3-3V3c0-1.7-1.4-3-3-3z" fill="#000" fill-rule="nonzero" opacity=".07"/><path d="M35 1c1.1 0 2 .9 2 2v18c0 1.1-.9 2-2 2H3c-1.1 0-2-.9-2-2V3c0-1.1.9-2 2-2h32" fill="#FFF" fill-rule="nonzero"/><path d="M25.26 16.23c-1.697 1.48-4.157 2.27-6.275 2.27-2.97 0-5.644-1.3-7.666-3.463-.16-.17-.018-.402.173-.27 2.183 1.504 4.882 2.408 7.67 2.408 1.88 0 3.95-.46 5.85-1.416.288-.145.53.222.248.47v.001zm.706-.957c-.216-.328-1.434-.155-1.98-.078-.167.024-.193-.148-.043-.27.97-.81 2.562-.576 2.748-.305.187.272-.047 2.16-.96 3.063-.14.138-.272.064-.21-.12.205-.604.664-1.96.446-2.29h-.001z" fill="#F90" fill-rule="nonzero"/><path d="M21.814 15.291c-.574-.498-.676-.73-.993-1.205-.947 1.012-1.618 1.315-2.85 1.315-1.453 0-2.587-.938-2.587-2.818 0-1.467.762-2.467 1.844-2.955.94-.433 2.25-.51 3.25-.628v-.235c0-.43.033-.94-.208-1.31-.212-.333-.616-.47-.97-.47-.66 0-1.25.353-1.392 1.085-.03.163-.144.323-.3.33l-1.677-.187c-.14-.033-.296-.153-.257-.38.386-2.125 2.223-2.766 3.867-2.766.84 0 1.94.234 2.604.9.842.82.762 1.918.762 3.11v2.818c0 .847.335 1.22.65 1.676.113.164.138.36-.003.482-.353.308-.98.88-1.326 1.2a.367.367 0 0 1-.414.038zm-1.659-2.533c.34-.626.323-1.214.323-1.918v-.392c-1.25 0-2.57.28-2.57 1.82 0 .782.386 1.31 1.05 1.31.487 0 .922-.312 1.197-.82z" fill="#221F1F"/></svg>
